X:1
T:Title
%%score { ( 1 4 ) | ( 2 3 ) }
L:1/8
Q:1/4=100
M:4/4
K:F
V:1 treble nm="Grand Piano"
V:4 treble 
V:2 bass 
V:3 bass 
V:1
 F2 C2 F2 [EG]2 | [FA]2 [GB]2 c2 A2 | AB A2 AG F2 | [EG]6 z2 | F2 C2 F2 [EG]2 | [FA]2 [GB]2 c2 A2 | %6
w: J.~H.~Hall * * *||||||
 [Fc][EG] [EG]2 [EG][FA] [EG]2 | F6 z2 | [Fd][Fd] [Fd]2 [DFB][DFB] [Fd]2 | F6 z2 | cc c2 dc A2 | %11
w: |||||
 [EG]6 z2 | F2 C2 F2 [EG]2 | A2 B2 c2 A2 | [Fc][EG] [EG]2 [EG][FA] [EG]2 | [A,F]6 z2 |] %16
w: |||||
V:2
 [F,A,C]2 [E,G,]2 [D,A,D]2 [C,C]2 | [F,C]2 [F,B,]2 [F,F]2- [F,CF]2 | %2
 [F,CF][F,DF] [F,CF]2 [F,CF][E,C] [D,=B,D]2 | [C,C]6 z2 | [F,A,C]2 [E,G,]2 [D,A,D]2 [C,C]2 | %5
 [F,C]2 [F,B,]2 [F,F]2- [F,CF]2 | [C,A,][C,C] [C,C]2 [C,C][C,C] [C,B,]2 | [F,A,]6 z2 | %8
 [B,,B,][B,,B,] [B,,B,]2 B,,B,, [B,,B,]2 | [F,A,]F, F,2 [F,C]2 z2 | %10
 [F,A,F][F,A,F] [F,A,F]2 [F,B,F][F,A,F] [F,CF]2 | [C,C]C, C,2 C,2 z2 | %12
 [F,A,C]2 [E,G,]2 [D,A,D]2 [C,C]2 | [F,CF]2 [F,B,F]2 [F,F]2- [F,CF]2 | %14
 [C,A,][C,C] [C,C]2 [C,C][C,C] [C,B,]2 | [F,,F,]6 z2 |] %16
V:3
 x8 | z4 A,2 z2 | x8 | x8 | x8 | z4 A,2 z2 | x8 | x8 | x8 | x8 | x8 | x8 | x8 | z4 A,2 z2 | x8 | %15
 x8 |] %16
V:4
 x8 | x8 | x8 | x8 | x8 | x8 | x8 | x8 | x8 | c-[A,c-] [A,c]2 A2 z2 | x8 | z C C2 C2 z2 | x8 | x8 | %14
 x8 | x8 |] %16

